twotone/svg/touch_app.svg

<svg xmlns="http://www.w3.org/2000/svg" width="24" height="24"><defs><path id="a" d="M0 0h24v24H0z"/></defs><g fill="currentColor"><path d="M18.12 14.44l-3.24-1.62c1.29-1 2.12-2.56 2.12-4.32C17 5.47 14.53 3 11.5 3S6 5.47 6 8.5c0 2.13 1.22 3.98 3 4.89v3.26l-1.84-.39-.1-.02c-.1-.02-.2-.03-.32-.03-.53 0-1.03.21-1.41.59l-1.4 1.42 5.09 5.09c.43.44 1.03.69 1.65.69h6.3c.98 0 1.81-.7 1.97-1.67l.8-4.71c.22-1.3-.43-2.58-1.62-3.18zM8 8.5C8 6.57 9.57 5 11.5 5S15 6.57 15 8.5c0 .95-.38 1.81-1 2.44V8.5a2.5 2.5 0 0 0-5 0v2.44c-.62-.63-1-1.49-1-2.44zm9.77 8.79l-.8 4.71h-6.3c-.09 0-.17-.04-.24-.1l-3.68-3.68 4.25.89V8.5c0-.28.22-.5.5-.5s.5.22.5.5v6h1.76l3.46 1.73c.4.2.62.63.55 1.06z"/><path opacity=".3" d="M17.23 16.23l-3.46-1.73H12v-6c0-.28-.22-.5-.5-.5s-.5.22-.5.5v10.61l-4.25-.89 3.68 3.68c.06.06.15.1.24.1h6.3l.8-4.71c.07-.43-.15-.86-.54-1.06z"/></g></svg>

<?xml version="1.0" encoding="utf-8"?>
<!-- Generator: Adobe Illustrator 19.1.0, SVG Export Plug-In . SVG Version: 6.00 Build 0)  -->
<svg version="1.1" xmlns="http://www.w3.org/2000/svg" xmlns:xlink="http://www.w3.org/1999/xlink" x="0px" y="0px" width="24px"
	 height="24px" viewBox="0 0 24 24" enable-background="new 0 0 24 24" xml:space="preserve">
<g id="Bounding_Boxes">
	<g id="ui_x5F_spec_x5F_header_copy_3">
	</g>
	<g>
		<defs>
			<rect id="SVGID_17_" width="24" height="24"/>
		</defs>
		<clipPath id="SVGID_2_">
			<use xlink:href="#SVGID_17_"  overflow="visible"/>
		</clipPath>
	</g>
</g>
<g id="Duotone" fill="currentColor">
	<g id="ui_x5F_spec_x5F_header_copy_2">
	</g>
	<g>
		<g>
			<path d="M18.12,14.44l-3.24-1.62C16.17,11.82,17,10.26,17,8.5C17,5.47,14.53,3,11.5,3S6,5.47,6,8.5c0,2.13,1.22,3.98,3,4.89v3.26
				l-1.84-0.39l-0.1-0.02c-0.1-0.02-0.2-0.03-0.32-0.03c-0.53,0-1.03,0.21-1.41,0.59l-1.4,1.42l5.09,5.09
				C9.45,23.75,10.05,24,10.67,24h6.3c0.98,0,1.81-0.7,1.97-1.67l0.8-4.71C19.96,16.32,19.31,15.04,18.12,14.44z M8,8.5
				C8,6.57,9.57,5,11.5,5S15,6.57,15,8.5c0,0.95-0.38,1.81-1,2.44V8.5C14,7.12,12.88,6,11.5,6S9,7.12,9,8.5v2.44
				C8.38,10.31,8,9.45,8,8.5z M17.77,17.29L16.97,22h-6.3c-0.09,0-0.17-0.04-0.24-0.1l-3.68-3.68L11,19.11V8.5
				C11,8.22,11.22,8,11.5,8S12,8.22,12,8.5v6h1.76l3.46,1.73C17.62,16.43,17.84,16.86,17.77,17.29z"/>
		</g>
		<path opacity="0.3" d="M17.23,16.23l-3.46-1.73H12v-6C12,8.22,11.78,8,11.5,8S11,8.22,11,8.5v10.61l-4.25-0.89l3.68,3.68
			c0.06,0.06,0.15,0.1,0.24,0.1h6.3l0.8-4.71C17.84,16.86,17.62,16.43,17.23,16.23z"/>
	</g>
</g>
</svg>
